img/text-line-spacing.svg

<?xml version="1.0" encoding="UTF-8"?>
<svg width="24px" height="24px" viewBox="0 0 24 24" version="1.1" xmlns="http://www.w3.org/2000/svg" xmlns:xlink="http://www.w3.org/1999/xlink">
    <!-- Uploaded to SVGRepo https://www.svgrepo.com -->
    <title>ic_fluent_text_line_spacing_24_filled</title>
    <desc>Created with Sketch.</desc>
    <g id="🔍-System-Icons" stroke="none" stroke-width="1" fill="none" fill-rule="evenodd">
        <g id="ic_fluent_text_line_spacing_24_filled" fill="#212121" fill-rule="nonzero">
            <path d="M19,13 C19.5523,13 20,13.4477 20,14 L20,17.5858 L20.2929,17.2929 C20.6834,16.9024 21.3166,16.9024 21.7071,17.2929 C22.0976,17.6834 22.0976,18.3166 21.7071,18.7071 L19.7071,20.7071 C19.3166,21.0976 18.6834,21.0976 18.2929,20.7071 L16.2929,18.7071 C15.9024,18.3166 15.9024,17.6834 16.2929,17.2929 C16.6834,16.9024 17.3166,16.9024 17.7071,17.2929 L18,17.5858 L18,14 C18,13.4477 18.4477,13 19,13 Z M11,17 C11.5523,17 12,17.4477 12,18 C12,18.51285 11.613973,18.9355092 11.1166239,18.9932725 L11,19 L3,19 C2.44772,19 2,18.5523 2,18 C2,17.48715 2.38604429,17.0644908 2.88337975,17.0067275 L3,17 L11,17 Z M14,11 C14.5523,11 15,11.4477 15,12 C15,12.5523 14.5523,13 14,13 L3,13 C2.44772,13 2,12.5523 2,12 C2,11.4477 2.44772,11 3,11 L14,11 Z M19,3 C19.1356,3 19.2649,3.02699 19.3828,3.07588 C19.5007,3.12468 19.6112,3.19702 19.7071,3.29289 L21.7071,5.29289 C22.0976,5.68342 22.0976,6.31658 21.7071,6.70711 C21.3166,7.09763 20.6834,7.09763 20.2929,6.70711 L20,6.41421 L20,10 C20,10.5523 19.5523,11 19,11 C18.4477,11 18,10.5523 18,10 L18,6.41421 L17.7071,6.70711 C17.3166,7.09763 16.6834,7.09763 16.2929,6.70711 C15.9024,6.31658 15.9024,5.68342 16.2929,5.29289 L18.2929,3.29289 C18.3888,3.19702 18.4993,3.12468 18.6172,3.07588 C18.7351,3.02699 18.8644,3 19,3 Z M11,5 C11.5523,5 12,5.44772 12,6 C12,6.55228 11.5523,7 11,7 L3,7 C2.44772,7 2,6.55228 2,6 C2,5.44772 2.44772,5 3,5 L11,5 Z" id="🎨-Color"></path>
        </g>
    </g>
</svg>

<?xml version="1.0" encoding="utf-8"?>
<!-- Generator: Adobe Illustrator 26.2.1, SVG Export Plug-In . SVG Version: 6.00 Build 0)  -->
<svg version="1.1" id="Layer_1" xmlns="http://www.w3.org/2000/svg" xmlns:xlink="http://www.w3.org/1999/xlink" x="0px" y="0px"
	 viewBox="0 0 24 24" style="enable-background:new 0 0 24 24;" xml:space="preserve">
<style type="text/css">
	.st0{fill:#B3B3B3;}
</style>
<path id="_xD83C__xDFA8_-Color" class="st0" d="M19,13c0.6,0,1,0.4,1,1v3.6l0.3-0.3c0.4-0.4,1-0.4,1.4,0c0.4,0.4,0.4,1,0,1.4l-2,2
	c-0.4,0.4-1,0.4-1.4,0l-2-2c-0.4-0.4-0.4-1,0-1.4c0.4-0.4,1-0.4,1.4,0l0.3,0.3V14C18,13.4,18.4,13,19,13z M11,17c0.6,0,1,0.4,1,1
	c0,0.5-0.4,0.9-0.9,1L11,19H3c-0.6,0-1-0.4-1-1c0-0.5,0.4-0.9,0.9-1L3,17H11z M14,11c0.6,0,1,0.4,1,1s-0.4,1-1,1H3c-0.6,0-1-0.4-1-1
	s0.4-1,1-1H14z M19,3c0.1,0,0.3,0,0.4,0.1c0.1,0,0.2,0.1,0.3,0.2l2,2c0.4,0.4,0.4,1,0,1.4c-0.4,0.4-1,0.4-1.4,0L20,6.4V10
	c0,0.6-0.4,1-1,1s-1-0.4-1-1V6.4l-0.3,0.3c-0.4,0.4-1,0.4-1.4,0c-0.4-0.4-0.4-1,0-1.4l2-2c0.1-0.1,0.2-0.2,0.3-0.2
	C18.7,3,18.9,3,19,3z M11,5c0.6,0,1,0.4,1,1s-0.4,1-1,1H3C2.4,7,2,6.6,2,6s0.4-1,1-1H11z"/>
</svg>
